%
(Header)
(Generated by gcodetools from Inkscape.)
(Using default header. To add your own header create file "header" in the output dir.)
M3
(Header end.)
G21 (All units in mm)

(Start cutting path id: path1471)
(Change tool to Plasma cutter)
 
G00 Z0.100000
G00 X17.734157 Y9.698389
G31 Z-100 F500 (find metal)
G92 Z0 (zero z)
G00 Z10 F500 (going up)
M03 (turn on plasma)
G04 P0.2 (pause)
G01 Z1 (going to cutting z)
G01 Z-0.100000 F100.0(Penetrate)
G02 X17.203671 Y7.031453 Z-0.100000 I-6.969040 J-0.000001 F400.000000
G02 X15.692973 Y4.770533 Z-0.100000 I-6.438553 J2.666935
G02 X13.432054 Y3.259835 Z-0.100000 I-4.927855 J4.927855
G02 X10.765118 Y2.729349 Z-0.100000 I-2.666936 J6.438553
G02 X8.098181 Y3.259835 Z-0.100000 I0.000000 J6.969040
G02 X5.837262 Y4.770533 Z-0.100000 I2.666936 J6.438553
G02 X4.326564 Y7.031453 Z-0.100000 I4.927855 J4.927855
G02 X3.796078 Y9.698389 Z-0.100000 I6.438553 J2.666935
G02 X4.326564 Y12.365325 Z-0.100000 I6.969040 J0.000001
G02 X5.837262 Y14.626245 Z-0.100000 I6.438553 J-2.666935
G02 X8.098181 Y16.136943 Z-0.100000 I4.927855 J-4.927855
G02 X10.765118 Y16.667429 Z-0.100000 I2.666936 J-6.438553
G02 X13.432054 Y16.136943 Z-0.100000 I0.000000 J-6.969040
G02 X15.692973 Y14.626245 Z-0.100000 I-2.666936 J-6.438553
G02 X17.203671 Y12.365325 Z-0.100000 I-4.927855 J-4.927855
G02 X17.734157 Y9.698389 Z-0.100000 I-6.438553 J-2.666935
G01 X17.734157 Y9.698389 Z-0.100000
G00 Z0.100000
M05 (turn off plasma)
(End cutting path id: path1471)


(Footer)
M5
G00 X0.0000 Y0.0000
M2
(Using default footer. To add your own footer create file "footer" in the output dir.)
(end)
%