%
(Header)
(Generated by gcodetools from Inkscape.)
(Using default header. To add your own header create file "header" in the output dir.)
M3
(Header end.)
G21 (All units in mm)

(Start cutting path id: path3726)
(Change tool to Plasma cutter)
 
G00 Z0.100000
G00 X23.894816 Y29.228483
G31 Z-100 F500 (find metal)
G92 Z0 (zero z)
G00 Z10 F500 (going up)
M03 (turn on plasma)
G04 P0.2 (pause)
G01 Z1 (going to cutting z)
G01 Z-0.125000 F10000.0(Penetrate)
G01 X21.910320 Y30.032895 Z-0.125000 F400.000000
G01 X20.957401 Y28.115280 Z-0.125000
G01 X19.431801 Y29.617896 Z-0.125000
G01 X17.817579 Y28.210914 Z-0.125000
G01 X16.983134 Y30.182973 Z-0.125000
G01 X14.953360 Y29.500827 Z-0.125000
G01 X14.937106 Y31.642098 Z-0.125000
G01 X12.800794 Y31.788642 Z-0.125000
G01 X13.605208 Y33.773138 Z-0.125000
G01 X11.687591 Y34.726056 Z-0.125000
G01 X13.190206 Y36.251656 Z-0.125000
G01 X11.783226 Y37.865877 Z-0.125000
G01 X13.755283 Y38.700324 Z-0.125000
G01 X13.073139 Y40.730097 Z-0.125000
G01 X15.214411 Y40.746353 Z-0.125000
G01 X15.360953 Y42.882665 Z-0.125000
G01 X17.345450 Y42.078253 Z-0.125000
G01 X18.298368 Y43.995868 Z-0.125000
G01 X19.823968 Y42.493255 Z-0.125000
G01 X21.438190 Y43.900234 Z-0.125000
G01 X22.272635 Y41.928175 Z-0.125000
G01 X24.302409 Y42.610321 Z-0.125000
G01 X24.318663 Y40.469050 Z-0.125000
G01 X26.454975 Y40.322506 Z-0.125000
G01 X25.650562 Y38.338010 Z-0.125000
G01 X27.568178 Y37.385092 Z-0.125000
G01 X26.065563 Y35.859492 Z-0.125000
G01 X27.472543 Y34.245271 Z-0.125000
G01 X25.500486 Y33.410824 Z-0.125000
G01 X26.182630 Y31.381051 Z-0.125000
G01 X24.041358 Y31.364795 Z-0.125000
G01 X23.894816 Y29.228483 Z-0.125000
G00 Z0.100000
M05 (turn off plasma)
(End cutting path id: path3726)


(Footer)
M5
G00 X0.0000 Y0.0000
M2
(Using default footer. To add your own footer create file "footer" in the output dir.)
(end)
%